X:66
T: Graserin und Reiter
N: Q0149N
O: Mitteleuropa, Schweiz, Kanton Bern
N: Verzierung (Vorschlag) .
R: Ballade, Verfuehrung, Verlassen des Elternhauses
M: 4/4
L: 1/8
K: G
D2 | G2G2G2B2 | d4g2
e2 | d2cBc3B | B2A2z2
d2 | d2c2e2c2 | B4d2
B2 | A2A2A2Ac | B2g2d2
d2 | d2c2e2c2 | B4d2
B2 | A2d2d2dc | B4z2

@@@ Tune index: 1669
